source/svgs/bowtie/uEAB2-task-group.svg

<svg xmlns="http://www.w3.org/2000/svg" viewBox="0 0 448 448"><path d="M448 224H0V0h448v224zM32 192h384V32H32v160zM160 64H64v96h96V64zm224 0H192v32h192V64zm-64 64H192v32h128v-32zm96 160H32v32h384v-32zm-64 96H96v32h256v-32z"/></svg>

<?xml version="1.0" encoding="utf-8"?>
<!-- Generator: Adobe Illustrator 20.0.0, SVG Export Plug-In . SVG Version: 6.00 Build 0)  -->
<svg version="1.1" xmlns="http://www.w3.org/2000/svg" xmlns:xlink="http://www.w3.org/1999/xlink" x="0px" y="0px"
	 viewBox="0 0 448 448" style="enable-background:new 0 0 448 448;" xml:space="preserve">
<path d="M448,224H0V0h448V224z M32,192h384V32H32V192z M160,64H64v96h96V64z M384,64H192v32h192V64z M320,128H192v32h128V128z
	 M416,288H32v32h384V288z M352,384H96v32h256V384z"/>
<g>
</g>
<g>
</g>
<g>
</g>
<g>
</g>
<g>
</g>
<g>
</g>
</svg>
